X:1
T:Amar un sol amante
T:Lodovico Agostini
T:Amar un sol amante
C:Lodovico Agostini
%%score [ 1 2 3 4 ]
L:1/8
Q:1/4=90
M:4/4
K:F
V:1 alto1 nm="Soprano" snm="S"
V:2 alto nm="Alto" snm="A"
V:3 tenor nm="Tenor" snm="T"
V:4 bass nm="Bass" snm="B"
V:1
 z8 |[K:G][K:treble] z2 B2 B3 B | A2 B2 c4 | c2 A4 A2 | ^G4 A4 | z2 B2 c3 B | c2 d2 e4 | %7
w: |A- mar un|sol a- man-|te e ve- ro a-|mo- re,|Et d'al- ma|gen- til na-|
 ^c2 d2 d3 =c | B2 A2 B4 | B4 A4 | B6 B2 | B4 c4 | A6 A2 | A4 A4 | A8 | A4 z2 B2 | B2 B2 c2 A2 | %17
w: sce, Et d'al- ma|gen- til na-|sce, Ma|chi di|piu l'in-|gor- da|vo- glia|pa-|sce, Quest'|e lus- su- ria|
 A3 A A2 c2 | B4 ^c2 =c2 | c2 c2 d2 B2 | B3 B B2 c2 | c2 B2 c2 c2 | c3 c dd d2 | d4 d2 B2 | %24
w: poi quest' e fu-|ro- re, Quest'|e lus- su- ria|poi quest' e fu-|ro- * re, Voi|sguar- di e ri- si pur|da- te a cia-|
 A4 B2 B2 | B3 B cc c2 | B2 A4 ^G2 | A4 B4 | z2 B2 B3 c | A2 B2 c4 | B8 | z8 | z8 | z4 z2 B2 | %34
w: scu- no, Voi|sguar- di e ri- si pur|da- te a cia-|scu- no,|Ma'i di- co in|due pa- ro-|le,|||A-|
 B2 B2 c4 | B8 | G4 c4 | B2 c4 d2 | c2 BA B4 | ^c4 z2 =c2 | c4 d4 | B4 B4 | c4 A4- | A4 G4 | %44
w: ma- te un so-|lo|e ch'io|sta poi quel|u- * * *|no, In|fi- ne ha-|ver si|vuol un|_ sol|
 F4 F4- | F2 E2 E4- | E2 ^D^C D4 | E4 z2 ^G2 | A4 A2 A2- | A2 A2 B4 | c2 c4 B2 | A4 ^G4 | %52
w: A- mo-|||re, Ch'a|noi ci ba-|* sta un Dio|ci ba- sta un|so- le,|
 z2 B2 B3 c | A2 B2 c4 | B8 | z8 | z8 | z4 z2 B2 | B2 B2 c4 | B8 | G4 c4 | B2 c4 d2 | c2 BA B4 | %63
w: Ma'i di- co in|due pa- ro-|le,|||A-|ma- te un so-|lo|e ch'io|sta poi quel|u- * * *|
 ^c4 z2 =c2 | c4 d4 | B4 B4 | c4 A4- | A4 G4 | F4 F4- | F2 E2 E4- | E2 ^D^C D4 | E4 z2 ^G2 | %72
w: no, In|fi- ne ha-|ver si|vuol un|_ sol|A- mo-|||re, Ch'a|
 A4 A2 A2- | A2 A2 B4 | c2 c4 B2 | A4 ^G2 A2 | A2 A2 A2 A2 | G4 F2 E2- | E2 e2 e4 | ^c8 |] %80
w: noi ci ba-|* sta un Dio|ci ba- sta un|so- le, Ch'a|noi ci ba- sta un|Dio ci ba-|* sta un so-|le.|
V:2
 z8 |[K:G][K:treble] z2 G2 G3 G | F2 G2 A4 | G2 =F4 E2 | E4 E4 | z2 G2 G3 F | G2 A2 ^G4 | %7
w: |A- mar un|sol a- man-|te e ve- ro a-|mo- re,|Et d'al- ma|gen- til na-|
 A2 F2 G3 E | G2 E2 F4 | G4 E4 | G6 G2 | G4 G4 | =F6 F2 | =F4 ^F4 | E8 | F4 z2 G2 | G2 G2 G2 F2 | %17
w: sce, Et d'al- ma|gen- til na-|sce, Ma|chi di|piu l'in-|gor- da|vo- glia|pa-|sce, Quest'|e lus- su- ria|
 E3 E F2 A2 | ^G4 A2 A2 | A2 A2 A2 G2 | F3 F G2 G2 | G4 G2 G2 | A3 A AA A2 | B4 A2 G2 | %24
w: poi quest' e fu-|ro- re, Quest'|e lus- su- ria|poi quest' e fu-|ro- re, Voi|sguar- di e ri- si pur|da- te a cia-|
 G2 F2 G2 D2 | G3 G EE E2 | E4 E2 E2 | ^C4 D4 | z2 G2 G2 E2 | F2 G2 A4 | G8 | z8 | z8 | z4 z2 G2 | %34
w: scu- * no, Voi|sguar- di e ri- si pur|da- te a cia-|scu- no,|Ma'i di- co in|due pa- ro-|le,|||A-|
 G2 G2 G4 | G4 G4 | E4 G2 A2- | A2 G2 A4- | A2 ^GF G4 | A4 z2 A2 | A6 A2 | ^G4 G4 | A4 E4 | %43
w: ma- te un so-|lo e|ch'io sta poi|_ quel u-||no, In|fi- ne ha-|ver si|vuol un|
 E2 B,2 E4- | E2 ^D2 D2 ^CD | E4 B,4 | z8 | z4 E4 | E4 E2 F2- | F2 F2 G4 | G2 G4 G2 | E4 E4 | %52
w: sol A- mo-||* re,||Ch'a|noi ci ba-|* sta un Dio|ci ba- sta un|so- le,|
 z2 G2 G2 E2 | F2 G2 A4 | G8 | z8 | z8 | z4 z2 G2 | G2 G2 G4 | G4 G4 | E4 G2 A2- | A2 G2 A4- | %62
w: Ma'i di- co in|due pa- ro-|le,|||A-|ma- te un so-|lo e|ch'io sta poi|_ quel u-|
 A2 ^GF G4 | A4 z2 A2 | A6 A2 | ^G4 G4 | A4 E4 | E2 B,2 E4- | E2 ^D2 D2 ^CD | E4 B,4 | z8 | z4 E4 | %72
w: |no, In|fi- ne ha-|ver si|vuol un|sol A- mo-||* re,||Ch'a|
 E4 E2 F2- | F2 F2 G4 | G2 G4 G2 | E4 E2 E2 | E2 E2 =F2 F2 | E4 D2 G2- | G2 A2 ^G4 | A8 |] %80
w: noi ci ba-|* sta un Dio|ci ba- sta un|so- le, Ch'a|noi ci ba- sta un|Dio ci ba-|* sta un so-|le.|
V:3
 z8 |[K:G][K:treble-8] z2 d2 d3 d | d2 d2 =f4 | e2 d4 c2 | B4 A4 | z2 G2 c3 d | e2 =f2 e4 | %7
w: |A- mar un|sol a- man-|te e ve- ro a-|mo- re,|Et d'al- ma|gen- til na-|
 A2 A2 B3 c | d2 e2 ^d4 | e4 c4 | d6 d2 | e4 e4 | c6 c2 | c4 d2 d2- | d2 ^cB c4 | d4 z2 d2 | %16
w: sce, Et d'al- ma|gen- til na-|sce, Ma|chi di|piu l'in-|gor- da|vo- glia pa-||sce, Quest'|
 d2 d2 e2 d2 | ^c3 c d2 A2 | e4 A2 e2 | e2 e2 =f2 e2 | ^d3 d e2 e2 | d4 c2 e2 | =f3 f dd d2 | %23
w: e lus- su- ria|poi quest' e fu-|ro- re, Quest'|e lus- su- ria|poi quest' e fu-|ro- re, Voi|sguar- di e ri- si pur|
 g4 f2 g2 | d4 d2 B2 | e3 e c2 cA | B2 c4 B2 | A4 G4 | z8 | z8 | z2 d2 B3 c | A2 B2 c4 | B4 z4 | %33
w: da- te a cia-|scu- no, Voi|sguar- di e ri- si pur|da- te a cia-|scu- no,|||Ma'i di- co in|due pa- ro-|le,|
 z4 z2 d2 | d2 d2 e4 | d4 G4 | c6 A2 | e4 =f4 | e8 | e8 | z4 A4 | e6 e2 | e4 c4 | B6 B2 | B4 B4 | %45
w: A-|ma- te un so-|lo e|ch'io sta|poi quel|u-|no,|In|fi- ne ha-|ver si|vuol un|sol A-|
 G8 | F8 | E4 B4 | ^c4 c2 d2- | d2 d2 d4 | e2 e4 d2 | c4 B4 | z8 | z8 | z2 d2 B3 c | A2 B2 c4 | %56
w: mo-||re, Ch'a|noi ci ba-|* sta un Dio|ci ba- sta un|so- le,|||Ma'i di- co in|due pa- ro-|
 B4 z4 | z4 z2 d2 | d2 d2 e4 | d4 G4 | c6 A2 | e4 =f4 | e8 | e8 | z4 A4 | e6 e2 | e4 c4 | B6 B2 | %68
w: le,|A-|ma- te un so-|lo e|ch'io sta|poi quel|u-|no,|In|fi- ne ha-|ver si|vuol un|
 B4 B4 | G8 | F8 | E4 B4 | ^c4 c2 d2- | d2 d2 d4 | e2 e4 d2 | c4 B2 c2 | c2 c2 c2 d2 | B4 B2 G2- | %78
w: sol A-|mo-||re, Ch'a|noi ci ba-|* sta un Dio|ci ba- sta un|so- le, Ch'a|noi ci ba- sta un|Dio ci ba-|
 G2 c2 B4 | A8 |] %80
w: * sta un so-|le.|
V:4
 z8 |[K:G] z2 G,2 G,3 G, | D,2 G,2 =F,4 | C,2 D,4 A,,2 | E,4 A,,4 | z8 | z8 | z2 D,2 G,3 A, | %8
w: |A- mar un|sol a- man-|te e ve- ro a-|mo- re,|||Et d'al- ma|
 B,2 C2 B,4 | E,4 A,4 | G,6 G,2 | E,4 C,4 | =F,6 F,2 | =F,4 D,4 | A,8 | D,4 z2 G,2 | %16
w: gen- til na-|sce, Ma|chi di|piu l'in-|gor- da|vo- glia|pa-|sce, Quest'|
 G,2 G,2 C,2 D,2 | A,,4 z4 | z4 z2 A,2 | A,2 A,2 D,2 E,2 | B,,3 B,, E,2 C,2 | G,4 C,4 | z8 | z8 | %24
w: e lus- su- ria|poi|Quest'|e lus- su- ria|poi quest' e fu-|ro- re,|||
 z2 D,2 G,3 G, | E,E, E,2 A,4 | ^G,2 A,2 E,4 | A,,4 z4 | z8 | z8 | z2 G,2 G,2 E,2 | F,2 G,2 A,4 | %32
w: Voi sguar- di e|ri- si pur da-|te a cia- scu-|no,|||Ma'i di- co in|due pa- ro-|
 G,2 E,2 F,2 G,2 | A,4 D,2 G,2 | G,2 G,2 C,4 | G,,4 z4 | z8 | z8 | z4 E,4 | A,6 A,2 | A,4 =F,4 | %41
w: le, A- ma- te un|so- lo A-|ma- te un so-|lo|||In|fi- ne ha-|ver si|
 E,4 E,4 | A,,2 B,,2 C,2 D,2 | E,4 E,4 | B,,8 | E,8 | z8 | z4 E,4 | A,,4 A,,2 D,2- | D,2 D,2 G,,4 | %50
w: vuol un|sol _ _ _|_ A-|mo-|re,||Ch'a|noi ci ba-|* sta un Dio|
 C,2 C,4 G,2 | A,4 E,4 | z8 | z8 | z2 G,2 G,2 E,2 | F,2 G,2 A,4 | G,2 E,2 F,2 G,2 | A,4 D,2 G,2 | %58
w: ci ba- sta un|so- le,|||Ma'i di- co in|due pa- ro-|le, A- ma- te un|so- lo A-|
 G,2 G,2 C,4 | G,,4 z4 | z8 | z8 | z4 E,4 | A,6 A,2 | A,4 =F,4 | E,4 E,4 | A,,2 B,,2 C,2 D,2 | %67
w: ma- te un so-|lo|||In|fi- ne ha-|ver si|vuol un|sol _ _ _|
 E,4 E,4 | B,,8 | E,8 | z8 | z4 E,4 | A,,4 A,,2 D,2- | D,2 D,2 G,,4 | C,2 C,4 G,2 | A,4 E,2 A,2 | %76
w: _ A-|mo-|re,||Ch'a|noi ci ba-|* sta un Dio|ci ba- sta un|so- le, Ch'a|
 A,2 A,2 =F,2 D,2 | E,4 B,,2 C,2- | C,2 A,,2 E,4 | A,,8 |] %80
w: noi ci ba- sta un|Dio ci ba-|* sta un so-|le.|

